static/images/download/play.svg

<svg width="58" height="64" viewBox="0 0 58 64" fill="none" xmlns="http://www.w3.org/2000/svg">
<path d="M55.4486 35.4615L44.9978 41.3762L35.6244 32.0615L45.0725 22.6721L55.4486 28.5441C56.0609 28.8904 56.5704 29.3931 56.9249 30.0007C57.2794 30.6084 57.4661 31.2993 57.4661 32.0028C57.4661 32.7063 57.2794 33.3972 56.9249 34.0049C56.5704 34.6126 56.0609 35.1152 55.4486 35.4615ZM0.298673 2.46386C0.100777 2.94429 -0.00070557 3.45894 3.69223e-06 3.97854V60.0244C3.69223e-06 60.6031 0.120005 61.1418 0.330674 61.6244L30.0776 32.0588L0.298673 2.46386ZM32.851 29.3041L41.5391 20.6694L5.9334 0.519836C5.17022 0.0812591 4.28136 -0.0869281 3.4107 0.0424975L32.851 29.3041ZM32.851 34.8162L3.51737 63.9711C4.31205 64.0671 5.14939 63.9285 5.9334 63.4831L41.4644 43.3763L32.851 34.8162Z" fill="#FDBE00"/>
</svg>

<svg width="58" height="64" fill="none" xmlns="http://www.w3.org/2000/svg"><path d="m55.449 35.462-10.451 5.914-9.374-9.314 9.448-9.39 10.377 5.872a3.975 3.975 0 0 1 0 6.918ZM.299 2.464c-.198.48-.3.995-.299 1.515v56.045c0 .58.12 1.118.33 1.6L30.079 32.06.298 2.464Zm32.552 26.84 8.688-8.635L5.933.52A3.91 3.91 0 0 0 3.411.043l29.44 29.262Zm0 5.512L3.517 63.971a3.898 3.898 0 0 0 2.416-.488l35.531-20.107-8.613-8.56Z" fill="#FDBE00"/></svg>
